package/converter/svg/duotone/square-caret-down.svg

<svg xmlns="http://www.w3.org/2000/svg" viewBox="0 0 448 512"><!-- Font Awesome Pro 6.0.0-alpha2 by @fontawesome - https://fontawesome.com License - https://fontawesome.com/license (Commercial License) --><defs><style>.fa-secondary{opacity:.4}</style></defs><path d="M384 32H64C28.654 32 0 60.652 0 96V416C0 451.344 28.654 480 64 480H384C419.346 480 448 451.344 448 416V96C448 60.652 419.346 32 384 32ZM345.594 232.344L241.594 344.344C237.031 349.219 230.688 352 224 352S210.969 349.219 206.406 344.344L102.406 232.344C95.906 225.344 94.188 215.156 98 206.406C101.812 197.656 110.469 192 120 192H328C337.531 192 346.188 197.656 350 206.406C353.812 215.156 352.094 225.344 345.594 232.344Z" class="fa-secondary"/><path d="M345.597 232.344L241.597 344.344C237.034 349.219 230.69 352 224.003 352S210.972 349.219 206.409 344.344L102.409 232.344C95.909 225.344 94.19 215.156 98.002 206.406C101.815 197.656 110.472 192 120.003 192H328.003C337.534 192 346.19 197.656 350.002 206.406C353.815 215.156 352.097 225.344 345.597 232.344Z" class="fa-primary"/></svg>

<svg xmlns="http://www.w3.org/2000/svg" viewBox="0 0 448 512"><!--! Font Awesome Pro 6.6.0 by @fontawesome - https://fontawesome.com License - https://fontawesome.com/license (Commercial License) Copyright 2024 Fonticons, Inc. --><defs><style>.fa-secondary{opacity:.4}</style></defs><path class="fa-secondary" d="M0 96L0 416c0 35.3 28.7 64 64 64l320 0c35.3 0 64-28.7 64-64l0-320c0-35.3-28.7-64-64-64L64 32C28.7 32 0 60.7 0 96zM96 216c0-3.2 .7-6.5 2-9.6c3.8-8.7 12.5-14.4 22-14.4l208 0c9.5 0 18.2 5.7 22 14.4c1.3 3.1 2 6.3 2 9.6c0 5.9-2.2 11.8-6.4 16.3l-104 112c-4.5 4.9-10.9 7.7-17.6 7.7s-13-2.8-17.6-7.7l-104-112C98.2 227.8 96 221.9 96 216z"/><path class="fa-primary" d="M241.6 344.3c-4.5 4.9-10.9 7.7-17.6 7.7s-13-2.8-17.6-7.7l-104-112c-6.5-7-8.2-17.2-4.4-25.9s12.5-14.4 22-14.4l208 0c9.5 0 18.2 5.7 22 14.4s2.1 18.9-4.4 25.9l-104 112z"/></svg>
